X: 135
T:Foliada de Carramal
M:3/4
L:1/8
Q:250
C:Trad.
S:Rep. Cantigas da Terra
R:Vals rápido
K:C
CECE |: G"F."cGF E"F."c | "~"E2 CECE | G"F."cGF D"F."c| "~"D2 B,DB,D| F2
EF D"F."c |"~"D2 B,DB,D|
F2EDC"F."G |1 CECECE :|2 C6- | C6- | C3"F."G C2 |: G"F."c G"F."c G"F."c
| G2 F4 | _A2G2A2 | 
_B2 {c}B2_A2 | G2F4 | "~"_A2G4- |1 G4 C2 :|2 G3 "F."c G2  |: E4C2 | A2 {
C}A2 {C}A2 | G4 "~"E2 |C4 F2|
D4 C2 |B,2C2D2  |1 E2C4- | C4 G2 :|2 _E2D2C2- |: C"F."G C"F."GCD | _E2FE
D2- | D"F."c D"F."cD_E |
F2 GF_E2- | _E2 C2 "F."GD| _E2 FED"F."c | D2 C2B,C| D2 _ED C2- :| C2 ||

